X:1
T: Bogniebrae
C:
R:Strathspey
Q:128
K:A
M:4/4
L:1/16
|:E2|E3F A3B c3B A3F|E3F A3B c3B B3c|A,3A A3B c3B A3F|E3F A3E CA,3 A,2E2|
E3F A3B c3B A3F|E3F A3B c3B B3c|A,3A A3B c3B A3F|E3F A3E CA,3 A,2f2|
e3a fa3 ea3 Aa3|c3e a3e fB3 B3f|e3a fa3 ea3 Aa3|C3E A3B cA3 A3f|
e3a fa3 ea3 Aa3|c3e a3e fB3 Bd3|cea2 Bdg2 Acf2 GBe2|((3F2B2d2) ((3G2B2e2) cA3 A2:|
